mono-glyphs/menu-w.svg

<svg xmlns="http://www.w3.org/2000/svg" width="1024" height="1024" fill="none" viewBox="0 0 1024 1024">
  <path fill="#fff" d="M253.5 1024c-16.667 0-32.583-3.42-47.75-10.25-15.167-6.83-28.5-16-40-27.5s-20.667-24.833-27.5-40C131.417 931.083 128 915.167 128 898.5v-773c0-16.667 3.417-32.583 10.25-47.75 6.833-15.167 16-28.5 27.5-40s24.833-20.667 40-27.5C220.917 3.417 236.833 0 253.5 0h517c16.667 0 32.583 3.417 47.75 10.25 15.167 6.833 28.5 16 40 27.5s20.667 24.833 27.5 40C892.583 92.917 896 108.833 896 125.5v773c0 16.667-3.417 32.583-10.25 47.75-6.833 15.167-16 28.5-27.5 40s-24.833 20.67-40 27.5c-15.167 6.83-31.083 10.25-47.75 10.25h-517ZM768 960c9 0 17.333-1.667 25-5 7.667-3.333 14.417-7.917 20.25-13.75S823.667 928.667 827 921s5-16 5-25V128c0-8.667-1.667-16.917-5-24.75-3.333-7.833-7.917-14.667-13.75-20.5S800.583 72.333 792.75 69s-16.083-5-24.75-5H256c-9 0-17.333 1.667-25 5-7.667 3.333-14.417 7.917-20.25 13.75S200.333 95.333 197 103s-5 16-5 25v768c0 9 1.667 17.417 5 25.25 3.333 7.833 7.833 14.583 13.5 20.25s12.417 10.167 20.25 13.5 16.25 5 25.25 5h512ZM352 320c-8.667 0-16.167-3.167-22.5-9.5-6.333-6.333-9.5-13.833-9.5-22.5s3.167-16.167 9.5-22.5c6.333-6.333 13.833-9.5 22.5-9.5h320c8.667 0 16.167 3.167 22.5 9.5 6.333 6.333 9.5 13.833 9.5 22.5s-3.167 16.167-9.5 22.5c-6.333 6.333-13.833 9.5-22.5 9.5H352Zm0 192c-8.667 0-16.167-3.167-22.5-9.5-6.333-6.333-9.5-13.833-9.5-22.5s3.167-16.167 9.5-22.5c6.333-6.333 13.833-9.5 22.5-9.5h320c8.667 0 16.167 3.167 22.5 9.5 6.333 6.333 9.5 13.833 9.5 22.5s-3.167 16.167-9.5 22.5c-6.333 6.333-13.833 9.5-22.5 9.5H352Zm0 192c-8.667 0-16.167-3.167-22.5-9.5-6.333-6.333-9.5-13.833-9.5-22.5s3.167-16.167 9.5-22.5c6.333-6.333 13.833-9.5 22.5-9.5h320c8.667 0 16.167 3.167 22.5 9.5 6.333 6.333 9.5 13.833 9.5 22.5s-3.167 16.167-9.5 22.5c-6.333 6.333-13.833 9.5-22.5 9.5H352Z"/>
</svg>

<svg width="1024" height="1024" viewBox="0 0 1024 1024" fill="none" xmlns="http://www.w3.org/2000/svg">
<mask id="mask0_47_1405" style="mask-type:luminance" maskUnits="userSpaceOnUse" x="128" y="0" width="768" height="1024">
<path d="M896 0H128V1024H896V0Z" fill="white"/>
</mask>
<g mask="url(#mask0_47_1405)">
<path d="M253.5 1024C236.833 1024 220.917 1020.58 205.75 1013.75C190.583 1006.92 177.25 997.75 165.75 986.25C154.25 974.75 145.083 961.417 138.25 946.25C131.417 931.083 128 915.167 128 898.5V125.5C128 108.833 131.417 92.9167 138.25 77.75C145.083 62.5834 154.25 49.2501 165.75 37.75C177.25 26.2501 190.583 17.0834 205.75 10.25C220.917 3.41669 236.833 0 253.5 0H770.5C787.167 0 803.083 3.41669 818.25 10.25C833.417 17.0834 846.75 26.2501 858.25 37.75C869.75 49.2501 878.917 62.5834 885.75 77.75C892.583 92.9167 896 108.833 896 125.5V898.5C896 915.167 892.583 931.083 885.75 946.25C878.917 961.417 869.75 974.75 858.25 986.25C846.75 997.75 833.417 1006.92 818.25 1013.75C803.083 1020.58 787.167 1024 770.5 1024H253.5ZM768 960C777 960 785.333 958.333 793 955C800.667 951.667 807.417 947.083 813.25 941.25C819.083 935.417 823.667 928.667 827 921C830.333 913.333 832 905 832 896V128C832 119.333 830.333 111.083 827 103.25C823.667 95.4167 819.083 88.5834 813.25 82.75C807.417 76.9167 800.583 72.3334 792.75 69C784.917 65.6667 776.667 64.0001 768 64H256C247 64.0001 238.667 65.6667 231 69C223.333 72.3334 216.583 76.9167 210.75 82.75C204.917 88.5834 200.333 95.3334 197 103C193.667 110.667 192 119 192 128V896C192 905 193.667 913.417 197 921.25C200.333 929.083 204.833 935.833 210.5 941.5C216.167 947.167 222.917 951.667 230.75 955C238.583 958.333 247 960 256 960H768ZM352 320C343.333 320 335.833 316.833 329.5 310.5C323.167 304.167 320 296.667 320 288C320 279.333 323.167 271.833 329.5 265.5C335.833 259.167 343.333 256 352 256H672C680.667 256 688.167 259.167 694.5 265.5C700.833 271.833 704 279.333 704 288C704 296.667 700.833 304.167 694.5 310.5C688.167 316.833 680.667 320 672 320H352ZM352 512C343.333 512 335.833 508.833 329.5 502.5C323.167 496.167 320 488.667 320 480C320 471.333 323.167 463.833 329.5 457.5C335.833 451.167 343.333 448 352 448H672C680.667 448 688.167 451.167 694.5 457.5C700.833 463.833 704 471.333 704 480C704 488.667 700.833 496.167 694.5 502.5C688.167 508.833 680.667 512 672 512H352ZM352 704C343.333 704 335.833 700.833 329.5 694.5C323.167 688.167 320 680.667 320 672C320 663.333 323.167 655.833 329.5 649.5C335.833 643.167 343.333 640 352 640H672C680.667 640 688.167 643.167 694.5 649.5C700.833 655.833 704 663.333 704 672C704 680.667 700.833 688.167 694.5 694.5C688.167 700.833 680.667 704 672 704H352Z" fill="white"/>
</g>
</svg>
